build/system/NotificationsOffOutline.svg

<svg xmlns="http://www.w3.org/2000/svg" fill="none" viewBox="0 0 24 24" focusable="false"><path d="M0 0H24V24H0z"/><path fill="#74767B" fill-rule="evenodd" d="M12.6003 2.58005C12.6003 2.22107 12.3093 1.93005 11.9503 1.93005C11.5913 1.93005 11.3003 2.22107 11.3003 2.58005L11.3003 4.62376C10.3112 4.7577 9.40736 5.19339 8.69711 5.84609L5.92469 2.2427C5.70578 1.95819 5.29767 1.905 5.01316 2.1239C4.72864 2.34281 4.67545 2.75092 4.89436 3.03543L19.2988 21.7573C19.5177 22.0418 19.9258 22.095 20.2103 21.8761C20.4949 21.6572 20.5481 21.249 20.3291 20.9645L16.9556 16.5799L19.1004 16.5799C19.4594 16.5799 19.7504 16.2889 19.7504 15.9299C19.7504 15.5709 19.4594 15.2799 19.1004 15.2799L18.3753 15.2799L16.6103 8.22005C16.133 6.29299 14.5286 4.8849 12.6003 4.62376L12.6003 2.58005ZM15.9554 15.2799L17.0403 15.2799L15.3503 8.54005C14.9603 6.97005 13.5603 5.88005 11.9503 5.88005C11.0065 5.88005 10.1349 6.25806 9.49655 6.88515L15.9554 15.2799ZM5.52533 15.2799L7.27906 8.265L8.28985 9.57875L6.86033 15.2799L12.6763 15.2799L13.6765 16.5799L4.80039 16.5799C4.44141 16.5799 4.15039 16.2889 4.15039 15.9299C4.15039 15.5709 4.44141 15.2799 4.80039 15.2799L5.52533 15.2799ZM10.6502 18.5846C10.6416 18.2257 10.3438 17.9417 9.98487 17.9503C9.62599 17.9588 9.34198 18.2567 9.35053 18.6155C9.38141 19.913 10.5239 20.8501 11.8003 20.8501C13.0768 20.8501 14.2193 19.913 14.2502 18.6155C14.2587 18.2567 13.9747 17.9588 13.6158 17.9503C13.2569 17.9417 12.9591 18.2257 12.9505 18.5846C12.9391 19.0663 12.4863 19.5501 11.8003 19.5501C11.1144 19.5501 10.6616 19.0663 10.6502 18.5846Z"/></svg>

<svg xmlns="http://www.w3.org/2000/svg" fill="none" viewBox="0 0 24 24" focusable="false"><path fill="#74767B" fill-rule="evenodd" d="M12.6 2.58c0-.36-.3-.65-.65-.65-.36 0-.65.29-.65.65v2.04c-.99.13-1.9.57-2.61 1.22l-2.77-3.6a.643.643 0 0 0-.91-.12c-.29.22-.34.63-.12.91l14.4 18.72c.22.29.63.34.92.12a.65.65 0 0 0 .11-.91l-3.37-4.39h2.15c.35 0 .65-.29.65-.65 0-.35-.3-.65-.65-.65h-.73l-1.76-7.05a4.8 4.8 0 0 0-4.01-3.6zm3.35 12.69h1.09l-1.69-6.73a3.5 3.5 0 0 0-3.4-2.66c-.95 0-1.82.37-2.46 1zm-10.43 0 1.75-7.01 1.02 1.31-1.43 5.7h5.81l1 1.3H4.8c-.36 0-.65-.29-.65-.65 0-.35.29-.65.65-.65zm5.13 3.31a.65.65 0 0 0-.67-.63c-.36 0-.64.3-.63.66.03 1.3 1.17 2.24 2.45 2.24 1.27 0 2.41-.94 2.45-2.24 0-.36-.28-.66-.64-.66a.634.634 0 0 0-.66.63c-.02.48-.47.96-1.15.96-.69 0-1.14-.48-1.15-.96"/></svg>
